X:1
T:Kalinka
T:Kalinka
%%score { 1 | 2 }
L:1/8
Q:1/4=80
M:4/4
K:C
V:1 treble nm="Piano" snm="Pno."
V:2 bass 
V:1
!mp! e2 |!<(! [Be]2 Bc [Bd]2 Bc!<)! |!mf!!<(! [Bd]2 cB [Ac]2 ee!<)! | %3
[Q:1/4=120]!f!!<(! [Bd]>c Bc [Bd]2 Bc!<)! |!ff! [Bd]2 cB [Ac]2 ee |[Q:1/4=160] [Bd]>c Bc [Bd]2 Bc | %6
 [Bd]2 cB [Ac]2 ee | [Bd]>c Bc [Bd]2 Bc |!>(! [Bd]2 cB[Q:1/4=120]!mf! [Acea]4!>)! | [Bdfg]8 | %10
[Q:1/4=150] [ce]2 g2 [df]2 ed | c4 G4 | [ce]2 g2 [df]2 ed | c4 G4 | A2 B2 d2 c2 | %15
 B2 A/ z/ z [CE]4 | [CG]4 [DFG]4 | z8 |[Q:1/4=80] z6!mp! e2 |!<(! [Be]2 Bc [Bd]2 Bc!<)! | %20
!mf!!<(! [Bd]2 cB [Ac]2 ee!<)! |!f![Q:1/4=120]!<(! [Bd]>c Bc [Bd]2 Bc!<)! |!ff! [Bd]2 cB [Ac]2 ee | %23
[Q:1/4=160] [Bd]>c Bc [Bd]2 Bc | [Bd]2 cB [Ac]2 ee | [Bd]>c Bc [Bd]2 Bc | %26
 [Bd]2 cB[Q:1/4=120] [Acea]4- | [Acea]8 |] %28
V:2
 z2 | _F,[^G,B,]B,,[G,B,] F,[G,B,]B,,[G,B,] | _F,[^G,B,]B,,[G,B,] A,[CE]E,[CE] | %3
 _F,[^G,B,]B,,[G,B,] F,[G,B,]B,,[G,B,] | _F,[^G,B,]B,,[G,B,] A,[CE]E,[CE] | %5
 _F,[^G,B,]B,,[G,B,] F,[G,B,]B,,[G,B,] | _F,[^G,B,]B,,[G,B,] A,[CE]E,[CE] | %7
 _F,[^G,B,]B,,[G,B,] F,[G,B,]B,,[G,B,] | _F,[^G,B,]B,,[G,B,] [A,,A,]4 | [G,,G,]8 | %10
 C2 [CE]2 D2 [DF]2 | C2 [CE]2 D2 [DF]2 | C2 [CE]2 D2 [DF]2 | C2 [CE]2 D2 [DF]2 | [D,F,]4 [D,F,]4- | %15
 [D,F,]4 [E,G,]4 | [E,G,]8 | !///!G,,8 | z8 | _F,[^G,B,]B,,[G,B,] F,[G,B,]B,,[G,B,] | %20
 _F,[^G,B,]B,,[G,B,] A,[CE]E,[CE] | _F,[^G,B,]B,,[G,B,] F,[G,B,]B,,[G,B,] | %22
 _F,[^G,B,]B,,[G,B,] A,[CE]E,[CE] | _F,[^G,B,]B,,[G,B,] F,[G,B,]B,,[G,B,] | %24
 _F,[^G,B,]B,,[G,B,] A,[CE]E,[CE] | _F,[^G,B,]B,,[G,B,] F,[G,B,]B,,[G,B,] | %26
 _F,[^G,B,]B,,[G,B,] [A,,A,]4- | [A,,A,]8 |] %28

